X: 27048
T: Miss Heather Frances Cassidy's Birthday
R: waltz
M: 3/4
K: Gmajor
|:BA|G4 AB|G2 g4|f4 d2|e2 g4|
d4 BA|G2 A2 B2|1 A2 B2 G2|E4:|2 A2 BG F2|G4||
B2|d4 ef|g4 d2|e4 fg|dB- B4|
e4 fg|dB-B4|A2 B2 G2|E4 BA|
G4 AB|G2 g4|f4 d2|e2 g4|
d4 BA|G2 A2 B2|A2 B2 G2|G4||

